X: 9607
T: Dawn Chorus, The
R: jig
M: 6/8
K: Gmajor
D2B BAB|dBB BGE|D2A AGA|DE/F/G AGE|
D2B BAB|dBB BAG|AB/^c/d BAB|1 FEE EGE:|2 FEE E2f
|:~g3 efg|fdA def|gfg aga|bge e2f|
gag gfe|ded dBd|~g3 ~B3|1 dBG GBd:|2 ~d3 DEG||

